public/im/ic_im_file.svg

<?xml version="1.0" encoding="UTF-8"?>
<svg width="24px" height="24px" viewBox="0 0 24 24" version="1.1" xmlns="http://www.w3.org/2000/svg" xmlns:xlink="http://www.w3.org/1999/xlink">
    <!-- Generator: Sketch 63.1 (92452) - https://sketch.com -->
    <title>ic_im_document</title>
    <desc>Created with Sketch.</desc>
    <g id="ic_im_document" stroke="none" stroke-width="1" fill="none" fill-rule="evenodd">
        <g id="文件" fill-rule="nonzero">
            <rect id="矩形" fill="#000000" opacity="0" x="0" y="0" width="24" height="24"></rect>
            <path d="M24,19.1109588 L24,10.4890949 L24,6.15667661 C24,5.62150402 23.961156,5.12208183 23.499534,4.74567952 C23.0833313,4.40611095 22.5857877,4.44607435 22.0869047,4.44607435 L11.3999456,4.44607435 L11.9256176,4.74423506 L10.2051591,2.36677358 C9.80746514,1.81703601 8.60342423,2.04827005 8.01577239,2.04827005 L1.56268296,2.04827005 C0.777401828,2.04827005 0.777401828,3.25198707 1.56268296,3.25198707 L9.66475318,3.25198707 L9.13908119,2.95382637 L10.4450418,4.75855929 C10.740329,5.16661936 10.9704703,5.649671 11.5354733,5.649671 L22.6178127,5.649671 C22.8624444,5.649671 22.7823211,6.04340684 22.7823211,6.20157525 L22.7823211,19.1109588 C22.7823211,19.8871155 24,19.8871155 24,19.1109588 Z M22.2067243,20.7961626 L1.39062493,20.7961626 C1.05344964,20.7961626 1.22319408,19.2572104 1.22319408,19.0430691 L1.22319408,8.18891205 L1.22319408,4.73027194 C1.22319408,4.56728866 1.08364808,3.28749672 1.34496197,3.26137606 C2.11855339,3.1842178 2.126103,1.97977856 1.34496197,2.05765905 C-0.161672154,2.20788293 0.00551516177,3.57097208 0.00551516177,4.66286379 L0.00551516177,19.7677068 C0.00551516177,20.7377823 0.00697637647,22 1.37856991,22 L22.2067243,22 C22.9918836,22 22.9918836,20.7961626 22.2067243,20.7961626 Z M1.17144273,10.0228953 L22.785,10.0228953 C23.5701593,10.0228953 23.5701593,8.81917828 22.785,8.81917828 L1.17156449,8.81917828 C0.386283359,8.81917828 0.386283359,10.0228953 1.17144273,10.0228953 Z" id="形状" fill="#AAAAAA"></path>
        </g>
    </g>
</svg>

<svg xmlns="http://www.w3.org/2000/svg" width="24" height="24" viewBox="0 0 24 24"><title>ic_im_document</title><path fill="#AAA" fill-rule="nonzero" d="M24 19.111V6.157c0-.535-.039-1.035-.5-1.411-.417-.34-.914-.3-1.413-.3H11.4l.526.298-1.72-2.377c-.399-.55-1.603-.319-2.19-.319H1.563c-.786 0-.786 1.204 0 1.204h8.102l-.526-.298 1.306 1.805c.295.408.525.89 1.09.89h11.083c.244 0 .164.394.164.553V19.11c0 .776 1.218.776 1.218 0zm-1.793 1.685H1.39c-.338 0-.168-1.539-.168-1.753V4.73c0-.163-.14-1.443.122-1.469.774-.077.781-1.281 0-1.203-1.507.15-1.34 1.513-1.34 2.605v15.105C.006 20.738.008 22 1.38 22h20.828c.785 0 .785-1.204 0-1.204zM1.17 10.023h21.614c.785 0 .785-1.204 0-1.204H1.172c-.786 0-.786 1.204 0 1.204z"/></svg>
